Adwaita++/apps/symbolic/preferences-autocompletion-symbolic.svg

<svg height="16" width="16" xmlns="http://www.w3.org/2000/svg">
  <path d="m5.970916 1.1121173-5.470916 13.8878827h2.072784l1.975589-5.0150695h5.700723l1.975586 5.0150695h2.072786l-2.279988-5.7866175h1.93942l-.385774 1.9288705 1.928873-3.0861945-1.928873-3.0861966.385774 1.9288736h-2.851115l-2.279987-5.7866182zm1.427818 1.6357748 2.090868 5.3081664h-4.181735z" fill="#474747" fill-rule="evenodd"/>
</svg>

<svg xmlns="http://www.w3.org/2000/svg" width="16" height="16" version="1.1">
 <path d="M 5.970916,1.1121173 0.5,15 H 2.572784 L 4.548373,9.9849305 h 5.700723 L 12.224682,15 h 2.072786 L 12.01748,9.2133825 H 13.9569 L 13.571126,11.142253 15.499999,8.0560585 13.571126,4.9698619 13.9569,6.8987355 H 11.105785 L 8.825798,1.1121173 Z M 7.398734,2.7478921 9.489602,8.0560585 H 5.307867 Z" style="fill:#444;fill-rule:evenodd"/>
</svg>
